X:93
T:B093-  Crimson Velvet
S:(2nd/2)
Q:1/4=120
L:1/4
M:3/2
K:G dorian
G3/2A/2BcA2|GBAG^FD|G3/2A/2Bcd2|d2DGG^F|\
G6::B3/2c/2dcB2|A3/2B/2cBA2|B3/2A/2GdcB|A6::\
A3/2B/2AG^FD|AB/2c/2dG^FD|=BA/2B/2cBAA|G6:|]

